X: 2549
T: Ballyhoura Mountains, The
R: polka
M: 2/4
K: Gmajor
Bc/B/ AG|EG GA|Bc/B/ AG|Bd ed|
Bc/B/ AG|EG GA|BG/B/ dB|AG G2:|
gd ed|Bd d2|gd ed|Bd A2|
gd ed|Bd ed|Bc/B/ AG/A/|BG G2:|

